X:2
T:Mrs. Farquharson's Jigg or Quick Step
C:Robert Petrie
S:Petrie's Collection of Strathspey Reels and Country Dances &c., 1790
Z:Steve Wyrick , 3/5/04
N:Petrie's First Collection, page 2
L:1/8
M:6/8
R:Jig
K:Cm
G|(Tc=Bc) GEC|(Tc=Bc) edc|(Tc=Bc) G=A_B|FGE DCB, |
  (Tc=Bc) GEC|  cde   dec| =BGg   fed  |ecc c2  :|
%Petrie's original does not show the B flat at the end of the third measure -SW
c|(Tgfg)  edc|(Tgfg)  fed|(Tgfg)  cde  |=Bcd G3  |
  (Tgfg)  edc|(Tgfg)  fed|  efg   fed  | ecc  c3 |
  (Tgfg)  edc|(Tgfg)  fed|(Tgfg)  cde  |=Bcd G2F |
   EDC    FED|  GFE   AGF| Ged    cd=B | c2c  c2|]
